TileServer und Tiles/svg/9/35_6.svg

<?xml version='1.0' encoding='UTF-8' standalone='no'?>
<svg xmlns="http://www.w3.org/2000/svg" width="497pt" viewBox="0 0 497 279" xmlns:xlink="http://www.w3.org/1999/xlink" height="279pt">
 <defs style="stroke:none;" overflow="visible">
  <path id="glyph0-9" d="M 0.28125 0 L 1.421875 -5.359375 L 2.296875 -5.359375 L 1.828125 -3.125 L 4.34375 -3.125 L 4.828125 -5.359375 L 5.703125 -5.359375 L 4.578125 0 L 3.6875 0 L 4.1875 -2.40625 L 1.671875 -2.40625 L 1.15625 0 Z M 0.28125 0 "/>
  <path id="glyph0-8" d="M 2.359375 0.09375 C 1.828125 0.09375 1.40625 -0.03125 1.09375 -0.28125 C 0.78125 -0.53125 0.625 -0.914062 0.625 -1.4375 C 0.625 -1.570312 0.632812 -1.722656 0.65625 -1.890625 C 0.675781 -2.066406 0.703125 -2.226562 0.734375 -2.375 L 1.359375 -5.359375 L 2.25 -5.359375 L 1.75 -3.03125 C 1.90625 -3.0625 2.078125 -3.085938 2.265625 -3.109375 C 2.453125 -3.140625 2.632812 -3.15625 2.8125 -3.15625 C 3.351562 -3.15625 3.757812 -3.03125 4.03125 -2.78125 C 4.3125 -2.539062 4.453125 -2.191406 4.453125 -1.734375 C 4.453125 -1.398438 4.375 -1.09375 4.21875 -0.8125 C 4.070312 -0.539062 3.84375 -0.320312 3.53125 -0.15625 C 3.226562 0.0078125 2.835938 0.09375 2.359375 0.09375 Z M 4.984375 0 L 6.109375 -5.359375 L 6.984375 -5.359375 L 5.84375 0 Z M 2.40625 -0.625 C 2.820312 -0.625 3.117188 -0.726562 3.296875 -0.9375 C 3.484375 -1.144531 3.578125 -1.382812 3.578125 -1.65625 C 3.578125 -1.945312 3.488281 -2.148438 3.3125 -2.265625 C 3.144531 -2.378906 2.894531 -2.4375 2.5625 -2.4375 C 2.394531 -2.4375 2.226562 -2.425781 2.0625 -2.40625 C 1.90625 -2.382812 1.75 -2.359375 1.59375 -2.328125 C 1.5625 -2.140625 1.535156 -1.984375 1.515625 -1.859375 C 1.492188 -1.734375 1.484375 -1.617188 1.484375 -1.515625 C 1.484375 -1.234375 1.554688 -1.015625 1.703125 -0.859375 C 1.847656 -0.703125 2.082031 -0.625 2.40625 -0.625 Z M 2.40625 -0.625 "/>
  <path id="glyph0-7" d="M 0.28125 0 L 1.421875 -5.359375 L 2.140625 -5.359375 L 2.03125 -4.375 L 2.078125 -4.375 C 2.203125 -4.539062 2.34375 -4.707031 2.5 -4.875 C 2.664062 -5.039062 2.859375 -5.175781 3.078125 -5.28125 C 3.296875 -5.394531 3.539062 -5.453125 3.8125 -5.453125 C 4.175781 -5.453125 4.457031 -5.347656 4.65625 -5.140625 C 4.851562 -4.929688 4.972656 -4.640625 5.015625 -4.265625 L 5.046875 -4.265625 C 5.179688 -4.460938 5.335938 -4.648438 5.515625 -4.828125 C 5.703125 -5.015625 5.910156 -5.164062 6.140625 -5.28125 C 6.367188 -5.394531 6.617188 -5.453125 6.890625 -5.453125 C 7.304688 -5.453125 7.625 -5.335938 7.84375 -5.109375 C 8.070312 -4.890625 8.1875 -4.566406 8.1875 -4.140625 C 8.1875 -3.984375 8.175781 -3.832031 8.15625 -3.6875 C 8.132812 -3.550781 8.109375 -3.410156 8.078125 -3.265625 L 7.390625 0 L 6.5 0 L 7.21875 -3.359375 C 7.25 -3.515625 7.269531 -3.644531 7.28125 -3.75 C 7.300781 -3.851562 7.3125 -3.957031 7.3125 -4.0625 C 7.3125 -4.257812 7.253906 -4.414062 7.140625 -4.53125 C 7.035156 -4.65625 6.863281 -4.71875 6.625 -4.71875 C 6.414062 -4.71875 6.1875 -4.632812 5.9375 -4.46875 C 5.695312 -4.3125 5.472656 -4.066406 5.265625 -3.734375 C 5.054688 -3.398438 4.894531 -2.960938 4.78125 -2.421875 L 4.265625 0 L 3.390625 0 L 4.09375 -3.359375 C 4.15625 -3.660156 4.1875 -3.878906 4.1875 -4.015625 C 4.1875 -4.234375 4.132812 -4.40625 4.03125 -4.53125 C 3.9375 -4.65625 3.773438 -4.71875 3.546875 -4.71875 C 3.328125 -4.71875 3.09375 -4.640625 2.84375 -4.484375 C 2.601562 -4.328125 2.375 -4.070312 2.15625 -3.71875 C 1.945312 -3.363281 1.78125 -2.894531 1.65625 -2.3125 L 1.15625 0 Z M 0.28125 0 "/>
  <path id="glyph0-6" d="M -0.21875 2.40625 L 1.421875 -5.359375 L 2.140625 -5.359375 L 2.015625 -4.359375 L 2.0625 -4.359375 C 2.289062 -4.648438 2.550781 -4.90625 2.84375 -5.125 C 3.144531 -5.34375 3.476562 -5.453125 3.84375 -5.453125 C 4.28125 -5.453125 4.628906 -5.296875 4.890625 -4.984375 C 5.160156 -4.679688 5.296875 -4.226562 5.296875 -3.625 C 5.296875 -3.132812 5.234375 -2.664062 5.109375 -2.21875 C 4.992188 -1.769531 4.820312 -1.367188 4.59375 -1.015625 C 4.375 -0.671875 4.101562 -0.398438 3.78125 -0.203125 C 3.457031 -0.00390625 3.09375 0.09375 2.6875 0.09375 C 2.332031 0.09375 2.039062 0.00390625 1.8125 -0.171875 C 1.59375 -0.359375 1.425781 -0.570312 1.3125 -0.8125 L 1.265625 -0.8125 C 1.265625 -0.707031 1.25 -0.5625 1.21875 -0.375 C 1.195312 -0.1875 1.171875 -0.03125 1.140625 0.09375 L 0.65625 2.40625 Z M 2.625 -0.625 C 2.882812 -0.625 3.125 -0.707031 3.34375 -0.875 C 3.570312 -1.050781 3.765625 -1.28125 3.921875 -1.5625 C 4.078125 -1.851562 4.195312 -2.175781 4.28125 -2.53125 C 4.363281 -2.894531 4.40625 -3.265625 4.40625 -3.640625 C 4.40625 -4.359375 4.117188 -4.71875 3.546875 -4.71875 C 3.328125 -4.71875 3.101562 -4.632812 2.875 -4.46875 C 2.644531 -4.3125 2.429688 -4.09375 2.234375 -3.8125 C 2.046875 -3.53125 1.890625 -3.207031 1.765625 -2.84375 C 1.648438 -2.488281 1.59375 -2.109375 1.59375 -1.703125 C 1.59375 -1.390625 1.675781 -1.128906 1.84375 -0.921875 C 2.007812 -0.722656 2.269531 -0.625 2.625 -0.625 Z M 2.625 -0.625 "/>
  <path id="glyph0-5" d="M 1.9375 0.09375 C 1.507812 0.09375 1.160156 -0.0546875 0.890625 -0.359375 C 0.617188 -0.671875 0.484375 -1.128906 0.484375 -1.734375 C 0.484375 -2.234375 0.546875 -2.707031 0.671875 -3.15625 C 0.804688 -3.601562 0.988281 -4 1.21875 -4.34375 C 1.445312 -4.6875 1.722656 -4.957031 2.046875 -5.15625 C 2.367188 -5.351562 2.722656 -5.453125 3.109375 -5.453125 C 3.460938 -5.453125 3.75 -5.359375 3.96875 -5.171875 C 4.1875 -4.992188 4.347656 -4.78125 4.453125 -4.53125 L 4.515625 -4.53125 L 4.828125 -5.359375 L 5.5 -5.359375 L 4.359375 0 L 3.65625 0 L 3.796875 -0.984375 L 3.75 -0.984375 C 3.519531 -0.691406 3.25 -0.4375 2.9375 -0.21875 C 2.632812 -0.0078125 2.300781 0.09375 1.9375 0.09375 Z M 2.21875 -0.625 C 2.46875 -0.625 2.707031 -0.710938 2.9375 -0.890625 C 3.175781 -1.078125 3.390625 -1.320312 3.578125 -1.625 C 3.773438 -1.9375 3.925781 -2.28125 4.03125 -2.65625 C 4.082031 -2.851562 4.113281 -3.03125 4.125 -3.1875 C 4.144531 -3.351562 4.15625 -3.507812 4.15625 -3.65625 C 4.15625 -3.96875 4.066406 -4.222656 3.890625 -4.421875 C 3.722656 -4.617188 3.492188 -4.71875 3.203125 -4.71875 C 2.941406 -4.71875 2.703125 -4.632812 2.484375 -4.46875 C 2.265625 -4.3125 2.070312 -4.085938 1.90625 -3.796875 C 1.738281 -3.515625 1.609375 -3.191406 1.515625 -2.828125 C 1.421875 -2.472656 1.375 -2.097656 1.375 -1.703125 C 1.375 -1.347656 1.445312 -1.078125 1.59375 -0.890625 C 1.738281 -0.710938 1.945312 -0.625 2.21875 -0.625 Z M 2.21875 -0.625 "/>
  <path id="glyph0-4" d="M 0.421875 0 L 1.9375 -7.140625 L 2.8125 -7.140625 L 2.1875 -4.125 L 5.3125 -4.125 L 5.953125 -7.140625 L 6.84375 -7.140625 L 5.328125 0 L 4.453125 0 L 5.15625 -3.328125 L 2.015625 -3.328125 L 1.3125 0 Z M 0.421875 0 "/>
  <path id="glyph0-3" d=""/>
  <path id="glyph0-2" d="M -0.375 0 L 1.953125 -2.765625 L 0.796875 -5.359375 L 1.6875 -5.359375 L 2.515625 -3.375 L 4.078125 -5.359375 L 5.09375 -5.359375 L 2.875 -2.71875 L 4.09375 0 L 3.203125 0 L 2.296875 -2.078125 L 0.65625 0 Z M -0.375 0 "/>
  <path id="glyph0-1" d="M 0.40625 0 L 1.921875 -7.140625 L 2.765625 -7.140625 L 1.9375 -3.203125 C 1.894531 -3.003906 1.84375 -2.78125 1.78125 -2.53125 C 1.71875 -2.28125 1.660156 -2.039062 1.609375 -1.8125 C 1.566406 -1.582031 1.523438 -1.410156 1.484375 -1.296875 L 1.515625 -1.296875 L 6.03125 -7.140625 L 7.0625 -7.140625 L 5.5625 0 L 4.71875 0 L 5.5625 -3.96875 C 5.613281 -4.195312 5.664062 -4.4375 5.71875 -4.6875 C 5.769531 -4.9375 5.820312 -5.171875 5.875 -5.390625 C 5.925781 -5.617188 5.972656 -5.804688 6.015625 -5.953125 L 5.984375 -5.953125 L 1.453125 0 Z M 0.40625 0 "/>
  <path id="glyph0-0" d="M 0.9375 0 L 0.9375 -7.140625 L 5.046875 -7.140625 L 5.046875 0 Z M 1.453125 -0.515625 L 4.546875 -0.515625 L 4.546875 -6.625 L 1.453125 -6.625 Z M 1.453125 -0.515625 "/>
 </defs>
 <image width="497" xlink:href="svg/9/35_6.jpg" height="279"/>
 <g>
  <path d="M 429.457031 134.714844 L 430.972656 127.574219 L 431.816406 127.574219 L 430.988281 131.511719 C 430.945312 131.710938 430.894531 131.933594 430.832031 132.183594 C 430.769531 132.433594 430.710938 132.675781 430.660156 132.902344 C 430.617188 133.132812 430.574219 133.304688 430.535156 133.417969 L 430.566406 133.417969 L 435.082031 127.574219 L 436.113281 127.574219 L 434.613281 134.714844 L 433.769531 134.714844 L 434.613281 130.746094 C 434.664062 130.519531 434.714844 130.277344 434.769531 130.027344 C 434.820312 129.777344 434.871094 129.542969 434.925781 129.324219 C 434.976562 129.097656 435.023438 128.910156 435.066406 128.761719 L 435.035156 128.761719 L 430.503906 134.714844 Z M 429.457031 134.714844 " transform=" rotate(  340 456.935 131.714) " style="fill:none;stroke-width:2;stroke-linecap:butt;stroke-linejoin:round;stroke:rgb(100%,100%,100%);stroke-opacity:0.6;stroke-miterlimit:10;"/>
  <path d="M 435.695312 134.714844 L 438.023438 131.949219 L 436.867188 129.355469 L 437.757812 129.355469 L 438.585938 131.339844 L 440.148438 129.355469 L 441.164062 129.355469 L 438.945312 131.996094 L 440.164062 134.714844 L 439.273438 134.714844 L 438.367188 132.636719 L 436.726562 134.714844 Z M 435.695312 134.714844 " transform=" rotate(  340 456.935 131.714) " style="fill:none;stroke-width:2;stroke-linecap:butt;stroke-linejoin:round;stroke:rgb(100%,100%,100%);stroke-opacity:0.6;stroke-miterlimit:10;"/>
  <path d="M 443.921875 134.714844 L 445.4375 127.574219 L 446.3125 127.574219 L 445.6875 130.589844 L 448.8125 130.589844 L 449.453125 127.574219 L 450.34375 127.574219 L 448.828125 134.714844 L 447.953125 134.714844 L 448.65625 131.386719 L 445.515625 131.386719 L 444.8125 134.714844 Z M 443.921875 134.714844 " transform=" rotate(  340 456.935 131.714) " style="fill:none;stroke-width:2;stroke-linecap:butt;stroke-linejoin:round;stroke:rgb(100%,100%,100%);stroke-opacity:0.6;stroke-miterlimit:10;"/>
  <path d="M 452.238281 134.808594 C 451.808594 134.808594 451.460938 134.660156 451.191406 134.355469 C 450.917969 134.042969 450.785156 133.585938 450.785156 132.980469 C 450.785156 132.480469 450.847656 132.007812 450.972656 131.558594 C 451.105469 131.113281 451.289062 130.714844 451.519531 130.371094 C 451.746094 130.027344 452.023438 129.757812 452.347656 129.558594 C 452.667969 129.363281 453.023438 129.261719 453.410156 129.261719 C 453.761719 129.261719 454.050781 129.355469 454.269531 129.542969 C 454.488281 129.722656 454.648438 129.933594 454.753906 130.183594 L 454.816406 130.183594 L 455.128906 129.355469 L 455.800781 129.355469 L 454.660156 134.714844 L 453.957031 134.714844 L 454.097656 133.730469 L 454.050781 133.730469 C 453.820312 134.023438 453.550781 134.277344 453.238281 134.496094 C 452.933594 134.707031 452.601562 134.808594 452.238281 134.808594 Z M 452.519531 134.089844 C 452.769531 134.089844 453.007812 134.003906 453.238281 133.824219 C 453.476562 133.636719 453.691406 133.394531 453.878906 133.089844 C 454.074219 132.777344 454.226562 132.433594 454.332031 132.058594 C 454.382812 131.863281 454.414062 131.683594 454.425781 131.527344 C 454.445312 131.363281 454.457031 131.207031 454.457031 131.058594 C 454.457031 130.746094 454.367188 130.492188 454.191406 130.292969 C 454.023438 130.097656 453.792969 129.996094 453.503906 129.996094 C 453.242188 129.996094 453.003906 130.082031 452.785156 130.246094 C 452.566406 130.402344 452.371094 130.628906 452.207031 130.917969 C 452.039062 131.199219 451.910156 131.523438 451.816406 131.886719 C 451.722656 132.242188 451.675781 132.617188 451.675781 133.011719 C 451.675781 133.367188 451.746094 133.636719 451.894531 133.824219 C 452.039062 134.003906 452.246094 134.089844 452.519531 134.089844 Z M 452.519531 134.089844 " transform=" rotate(  340 456.935 131.714) " style="fill:none;stroke-width:2;stroke-linecap:butt;stroke-linejoin:round;stroke:rgb(100%,100%,100%);stroke-opacity:0.6;stroke-miterlimit:10;"/>
  <path d="M 455.761719 137.121094 L 457.402344 129.355469 L 458.121094 129.355469 L 457.996094 130.355469 L 458.042969 130.355469 C 458.269531 130.066406 458.53125 129.808594 458.824219 129.589844 C 459.125 129.371094 459.457031 129.261719 459.824219 129.261719 C 460.261719 129.261719 460.609375 129.417969 460.871094 129.730469 C 461.140625 130.035156 461.277344 130.488281 461.277344 131.089844 C 461.277344 131.582031 461.214844 132.050781 461.089844 132.496094 C 460.972656 132.945312 460.800781 133.347656 460.574219 133.699219 C 460.355469 134.042969 460.082031 134.316406 459.761719 134.511719 C 459.4375 134.710938 459.074219 134.808594 458.667969 134.808594 C 458.3125 134.808594 458.019531 134.71875 457.792969 134.542969 C 457.574219 134.355469 457.40625 134.144531 457.292969 133.902344 L 457.246094 133.902344 C 457.246094 134.007812 457.230469 134.152344 457.199219 134.339844 C 457.175781 134.527344 457.152344 134.683594 457.121094 134.808594 L 456.636719 137.121094 Z M 458.605469 134.089844 C 458.863281 134.089844 459.105469 134.007812 459.324219 133.839844 C 459.550781 133.664062 459.746094 133.433594 459.902344 133.152344 C 460.058594 132.863281 460.175781 132.539062 460.261719 132.183594 C 460.34375 131.820312 460.386719 131.449219 460.386719 131.074219 C 460.386719 130.355469 460.097656 129.996094 459.527344 129.996094 C 459.308594 129.996094 459.082031 130.082031 458.855469 130.246094 C 458.625 130.402344 458.410156 130.621094 458.214844 130.902344 C 458.027344 131.183594 457.871094 131.507812 457.746094 131.871094 C 457.628906 132.226562 457.574219 132.605469 457.574219 133.011719 C 457.574219 133.324219 457.65625 133.585938 457.824219 133.792969 C 457.988281 133.992188 458.25 134.089844 458.605469 134.089844 Z M 458.605469 134.089844 " transform=" rotate(  340 456.935 131.714) " style="fill:none;stroke-width:2;stroke-linecap:butt;stroke-linejoin:round;stroke:rgb(100%,100%,100%);stroke-opacity:0.6;stroke-miterlimit:10;"/>
  <path d="M 462.050781 134.714844 L 463.191406 129.355469 L 463.910156 129.355469 L 463.800781 130.339844 L 463.847656 130.339844 C 463.972656 130.175781 464.113281 130.007812 464.269531 129.839844 C 464.433594 129.675781 464.628906 129.539062 464.847656 129.433594 C 465.066406 129.320312 465.308594 129.261719 465.582031 129.261719 C 465.945312 129.261719 466.226562 129.367188 466.425781 129.574219 C 466.621094 129.785156 466.742188 130.074219 466.785156 130.449219 L 466.816406 130.449219 C 466.949219 130.253906 467.105469 130.066406 467.285156 129.886719 C 467.472656 129.699219 467.679688 129.550781 467.910156 129.433594 C 468.136719 129.320312 468.386719 129.261719 468.660156 129.261719 C 469.074219 129.261719 469.394531 129.378906 469.613281 129.605469 C 469.839844 129.824219 469.957031 130.148438 469.957031 130.574219 C 469.957031 130.730469 469.945312 130.882812 469.925781 131.027344 C 469.902344 131.164062 469.878906 131.304688 469.847656 131.449219 L 469.160156 134.714844 L 468.269531 134.714844 L 468.988281 131.355469 C 469.019531 131.199219 469.039062 131.070312 469.050781 130.964844 C 469.070312 130.863281 469.082031 130.757812 469.082031 130.652344 C 469.082031 130.457031 469.023438 130.300781 468.910156 130.183594 C 468.804688 130.058594 468.632812 129.996094 468.394531 129.996094 C 468.183594 129.996094 467.957031 130.082031 467.707031 130.246094 C 467.464844 130.402344 467.242188 130.648438 467.035156 130.980469 C 466.824219 131.316406 466.664062 131.753906 466.550781 132.292969 L 466.035156 134.714844 L 465.160156 134.714844 L 465.863281 131.355469 C 465.925781 131.054688 465.957031 130.835938 465.957031 130.699219 C 465.957031 130.480469 465.902344 130.308594 465.800781 130.183594 C 465.707031 130.058594 465.542969 129.996094 465.316406 129.996094 C 465.097656 129.996094 464.863281 130.074219 464.613281 130.230469 C 464.371094 130.386719 464.144531 130.644531 463.925781 130.996094 C 463.714844 131.351562 463.550781 131.820312 463.425781 132.402344 L 462.925781 134.714844 Z M 462.050781 134.714844 " transform=" rotate(  340 456.935 131.714) " style="fill:none;stroke-width:2;stroke-linecap:butt;stroke-linejoin:round;stroke:rgb(100%,100%,100%);stroke-opacity:0.6;stroke-miterlimit:10;"/>
  <path d="M 472.878906 134.808594 C 472.347656 134.808594 471.925781 134.683594 471.613281 134.433594 C 471.300781 134.183594 471.144531 133.800781 471.144531 133.277344 C 471.144531 133.144531 471.152344 132.992188 471.175781 132.824219 C 471.195312 132.648438 471.222656 132.488281 471.253906 132.339844 L 471.878906 129.355469 L 472.769531 129.355469 L 472.269531 131.683594 C 472.425781 131.652344 472.597656 131.628906 472.785156 131.605469 C 472.972656 131.574219 473.152344 131.558594 473.332031 131.558594 C 473.871094 131.558594 474.277344 131.683594 474.550781 131.933594 C 474.832031 132.175781 474.972656 132.523438 474.972656 132.980469 C 474.972656 133.316406 474.894531 133.621094 474.738281 133.902344 C 474.589844 134.175781 474.363281 134.394531 474.050781 134.558594 C 473.746094 134.722656 473.355469 134.808594 472.878906 134.808594 Z M 475.503906 134.714844 L 476.628906 129.355469 L 477.503906 129.355469 L 476.363281 134.714844 Z M 472.925781 134.089844 C 473.339844 134.089844 473.636719 133.988281 473.816406 133.777344 C 474.003906 133.570312 474.097656 133.332031 474.097656 133.058594 C 474.097656 132.769531 474.007812 132.566406 473.832031 132.449219 C 473.664062 132.335938 473.414062 132.277344 473.082031 132.277344 C 472.914062 132.277344 472.746094 132.289062 472.582031 132.308594 C 472.425781 132.332031 472.269531 132.355469 472.113281 132.386719 C 472.082031 132.574219 472.054688 132.730469 472.035156 132.855469 C 472.011719 132.980469 472.003906 133.097656 472.003906 133.199219 C 472.003906 133.480469 472.074219 133.699219 472.222656 133.855469 C 472.367188 134.011719 472.601562 134.089844 472.925781 134.089844 Z M 472.925781 134.089844 " transform=" rotate(  340 456.935 131.714) " style="fill:none;stroke-width:2;stroke-linecap:butt;stroke-linejoin:round;stroke:rgb(100%,100%,100%);stroke-opacity:0.6;stroke-miterlimit:10;"/>
  <path d="M 478.082031 134.714844 L 479.222656 129.355469 L 480.097656 129.355469 L 479.628906 131.589844 L 482.144531 131.589844 L 482.628906 129.355469 L 483.503906 129.355469 L 482.378906 134.714844 L 481.488281 134.714844 L 481.988281 132.308594 L 479.472656 132.308594 L 478.957031 134.714844 Z M 478.082031 134.714844 " transform=" rotate(  340 456.935 131.714) " style="fill:none;stroke-width:2;stroke-linecap:butt;stroke-linejoin:round;stroke:rgb(100%,100%,100%);stroke-opacity:0.6;stroke-miterlimit:10;"/>
  <g transform=" rotate(  340 456.935 131.714) " style="fill:rgb(0%,50.196078%,0%);fill-opacity:1;">
   <use xlink:href="#glyph0-1" y="134.71395" x="429.050354"/>
   <use xlink:href="#glyph0-2" y="134.71395" x="436.070354"/>
   <use xlink:href="#glyph0-3" y="134.71395" x="440.900354"/>
   <use xlink:href="#glyph0-4" y="134.71395" x="443.500354"/>
   <use xlink:href="#glyph0-5" y="134.71395" x="450.300354"/>
   <use xlink:href="#glyph0-6" y="134.71395" x="455.980354"/>
   <use xlink:href="#glyph0-7" y="134.71395" x="461.770354"/>
   <use xlink:href="#glyph0-8" y="134.71395" x="470.520354"/>
   <use xlink:href="#glyph0-9" y="134.71395" x="477.800354"/>
  </g>
 </g>
</svg>

<svg xmlns="http://www.w3.org/2000/svg" xmlns:xlink="http://www.w3.org/1999/xlink" viewBox="0 0 497 279"> <defs overflow="visible" style="stroke:none">  <path id="h" d="m.3 0 1.1-5.4h.9L1.8-3h2.5l.5-2.4h.9L4.6 0h-1l.7-2.4H1.7L1.2 0Zm0 0"/>  <path id="g" d="M2.4 0c-.6 0-1 0-1.4-.2C.8-.5.6-.9.6-1.4V-2a5 5 0 0 1 .2-.4l.6-3h.9L1.8-3l.5-.1h.5c.6-.1 1-.1 1.2.2.3.4.5.7.5 1.1s-.1.8-.3 1.1c-.1.2-.4.4-.7.5-.3.2-.7.3-1.1.3ZM5 0l1-5.4h1L5.8 0ZM2.4-.6c.4 0 .7-.1.9-.4a1 1 0 0 0 .3-.7l-.3-.6-.7-.1h-1v.6l-.2.3c.1.3.1.5.3.5.1.3.4.4.7.4Zm0 0"/>  <path id="f" d="m.3 0 1.1-5.4h.7v1l.4-.5.6-.4.7-.2c.4 0 .7.2.9.5.2 0 .3.4.3.7l.5-.5.6-.5.9-.2c.3 0 .6.2.9.5.1 0 .2.4.2.9v.4l-.1.4L7.4 0h-.9l.7-3.4v-.4l.2-.2c-.1-.3-.1-.4-.3-.5 0-.2-.1-.2-.5-.2-.2 0-.4 0-.6.2l-.7.8c-.3.3-.4.7-.5 1.3L4.3 0h-1l.9-3.4v-1.1c-.4-.2-.5-.2-.8-.2-.1 0-.3 0-.6.2l-.6.8c-.3.3-.4.7-.5 1.4L1.2 0Zm0 0"/>  <path id="e" d="m-.2 2.4 1.6-7.8h.7v1l.7-.6c.3-.3.7-.5 1-.5.5 0 .8.2 1 .5.5.3.6.8.6 1.4-.1.5-.1 1-.3 1.4L4.6-1l-.8.8a2 2 0 0 1-1.1.3C2.3 0 2 0 1.8-.2a2 2 0 0 1-.5-.6v.4L1 .1.7 2.4Zm2.8-3c.4 0 .5-.1.7-.4.3 0 .5-.3.7-.6a4 4 0 0 0 .3-1 5 5 0 0 0 .1-.9c0-.9-.3-1.2-.9-1.2-.2 0-.4 0-.5.2l-.8.7-.4 1c-.2.3-.2.7-.2 1.1 0 .3 0 .6.2.8.2.2.5.3.8.3Zm0 0"/>  <path id="d" d="M2 0c-.6 0-.9 0-1.2-.3C.6-.7.5-1 .5-1.7c0-.5 0-1 .2-1.5l.5-1.1c.2-.4.5-.7.8-.9a2 2 0 0 1 1.1-.3c.4 0 .6.1.9.3l.5.7.3-.9h.7L4.4 0h-.7l.1-1c-.3.3-.5.6-.9.8-.3.2-.6.2-.9.2Zm.1-.5c.4-.1.6-.2.9-.5l.6-.6a4 4 0 0 0 .4-1 3 3 0 0 0 .1-.7 4 4 0 0 0 0-.4c.1-.3.1-.5-.1-.7-.3-.2-.5-.3-.8-.3-.3 0-.5 0-.7.2a2 2 0 0 0-.6.7l-.4 1-.1 1.1c0 .4 0 .6.2.8.1.2.3.3.6.3Zm.1-.1"/>  <path id="c" d="M.4 0 2-7.1h1l-.9 3h3.2l.7-3h.8L5.3 0h-.8l.7-3.3H2L1.3 0Zm0 0"/>  <path id="b" d="M-.4 0 2-2.8.8-5.4h.9l.8 2 1.6-2H5L2.9-2.7 4 0h-.8l-.9-2L.7 0Zm0 0"/>  <path id="a" d="M.4 0 2-7.1h.8l-.9 3.9a21 21 0 0 1-.3 1.4l-.1.5L6-7.1h1L5.7 0h-1l.9-4 .1-.7A16.3 16.3 0 0 1 6-6L1.5 0Zm0 0"/>  <path d="M1 0v-7.1h4V0Zm.4-.5h3.1v-6.1h-3Zm.1 0"/> </defs> <image xlink:href="svg/9/35_6.jpg" width="497" height="279"/> <path d="m429.5 134.7 1.5-7.1h.8l-.8 4a21 21 0 0 1-.3 1.2l-.2.6 4.7-5.8h.8l-1.4 7.1h-.8l.8-4 .2-.7a16.3 16.3 0 0 1 .2-1.2l-4.6 6Zm6.2 0 2.3-2.7-1-2.6h.8l.8 2 1.4-2.1h1.1L439 132l1.2 2.7h-1l-.7-2-1.8 1.9Zm8.3 0 1.3-7.1h1.1l-.8 3h3.2l.7-3h.8l-1.5 7.1h-.8l.7-3.3h-3.2l-.7 3.3Zm8.2.1c-.4 0-.7-.1-1-.4-.3-.4-.4-.8-.4-1.4 0-.5 0-1 .2-1.4l.5-1.2c.2-.4.5-.6.8-.8a2 2 0 0 1 1.1-.3c.4 0 .7 0 .9.2l.5.7.3-.8h.7l-1.1 5.3h-.7v-1c-.2.3-.4.6-.8.8-.2.2-.6.3-1 .3Zm.3-.7c.3-.1.5-.1.7-.3l.8-.7a4 4 0 0 0 .3-1.1 3 3 0 0 0 .1-.5 4 4 0 0 0 0-.4c.1-.4.1-.6-.1-.8-.3-.3-.5-.3-.8-.3-.3 0-.5 0-.7.2a2 2 0 0 0-.6.8l-.4 1-.1 1c0 .4 0 .6.2.8.1.2.3.3.6.3Zm3.3 3 1.6-7.7h.7l-.1 1 .8-.8c.3-.2.7-.3 1-.3.5 0 .8.1 1 .4.4.3.6.8.6 1.4-.1.5-.1.9-.4 1.4l-.4 1.2-.8.8a2 2 0 0 1-1.1.3c-.4 0-.7 0-1-.3a2 2 0 0 1-.3-.5l-.3.3v.5l-.6 2.3Zm2.8-3c.4-.1.5-.1.7-.3.3-.1.4-.4.7-.6a4 4 0 0 0 .3-1 5 5 0 0 0 0-1.2c.1-.6-.1-1-.7-1-.3 0-.5 0-.6.2l-.8.8-.5.9-.1 1.1c0 .3 0 .6.2.8.2.2.4.2.8.2Zm3.4.6 1.3-5.3h.6l-.1 1 .5-.7.5-.3.8-.1c.3 0 .6 0 .8.3l.4.8.5-.4.6-.6.8-.1c.3 0 .7 0 1 .3 0 .2.3.5.3 1v.4l-.3.4-.5 3.3h-1l.8-3.3v-1.2l-.7-.2c-.1 0-.3 0-.6.2-.2.2-.5.4-.7.8-.2.3-.3.8-.4 1.3l-.6 2.4h-.8l.7-3.3v-1.2l-.6-.2c-.2 0-.3 0-.7.2-.2.2-.5.4-.6.8l-.6 1.4-.4 2.3Zm10.9.1c-.6 0-1-.1-1.3-.4-.3-.2-.5-.6-.5-1.1v-.5a5 5 0 0 1 .3-.5l.5-3h.9l-.5 2.5h.5l.5-.3c.7.1 1 .1 1.3.4.2.3.4.6.4 1.1s-.1.7-.3 1c-.1.2-.3.4-.6.6l-1.2.2Zm2.6 0 1.1-5.5h.9l-1.1 5.4Zm-2.6-.8c.4 0 .7 0 1.1-.2a1 1 0 0 0 0-.8c.1-.2.1-.4-.2-.6l-.7-.1H472V133.2c0 .3 0 .5.2.7l.8.1Zm5.1.7 1.3-5.3h.8l-.5 2.2h2.5l.5-2.2h.9l-1.1 5.3h-1l.6-2.4h-2.5l-.5 2.4Zm0 0" style="fill:none;stroke-width:2;stroke-linecap:butt;stroke-linejoin:round;stroke:#fff;stroke-opacity:.6;stroke-miterlimit:10" transform=" rotate(  340 456.935 131.714) "/> <g style="fill:green;fill-opacity:1" transform=" rotate(  340 456.935 131.714) ">  <use xlink:href="#a" x="429.1" y="134.7"/>  <use xlink:href="#b" x="436.1" y="134.7"/>  <use xlink:href="#glyph0-3" x="440.9" y="134.7"/>  <use xlink:href="#c" x="443.5" y="134.7"/>  <use xlink:href="#d" x="450.3" y="134.7"/>  <use xlink:href="#e" x="456" y="134.7"/>  <use xlink:href="#f" x="461.8" y="134.7"/>  <use xlink:href="#g" x="470.5" y="134.7"/>  <use xlink:href="#h" x="477.8" y="134.7"/> </g></svg>
